dist/svgs/unicons/line/money-withdrawal.svg

<svg xmlns="http://www.w3.org/2000/svg" viewBox="0 0 24 24"><path d="M22 2H2a1 1 0 00-1 1v8a1 1 0 001 1h3v9a1 1 0 001 1h12a1 1 0 001-1v-9h3a1 1 0 001-1V3a1 1 0 00-1-1zM7 20v-2a2 2 0 012 2zm10 0h-2a2 2 0 012-2zm0-4a4 4 0 00-4 4h-2a4 4 0 00-4-4V8h10zm4-6h-2V7a1 1 0 00-1-1H6a1 1 0 00-1 1v3H3V4h18zm-9 5a3 3 0 10-3-3 3 3 0 003 3zm0-4a1 1 0 11-1 1 1 1 0 011-1z"/></svg>

<svg xmlns="http://www.w3.org/2000/svg" viewBox="0 0 24 24"><path d="M22,2H2A1,1,0,0,0,1,3v8a1,1,0,0,0,1,1H5v9a1,1,0,0,0,1,1H18a1,1,0,0,0,1-1V12h3a1,1,0,0,0,1-1V3A1,1,0,0,0,22,2ZM7,20V18a2,2,0,0,1,2,2Zm10,0H15a2,2,0,0,1,2-2Zm0-4a4,4,0,0,0-4,4H11a4,4,0,0,0-4-4V8H17Zm4-6H19V7a1,1,0,0,0-1-1H6A1,1,0,0,0,5,7v3H3V4H21Zm-9,5a3,3,0,1,0-3-3A3,3,0,0,0,12,15Zm0-4a1,1,0,1,1-1,1A1,1,0,0,1,12,11Z"/></svg>
